X: 955
T: Tall Timber
C:Bill Monroe, arr.Barry Mitterhoff
B: jims roots
M:4/4
L:1/8
Q: 1/4=100
K:G
V:1 
ef|: "G"g2 ga gddg | eddg eddg | efga gedg | e d2 d d2 ef |
gfga gdde | "F"=fefg fdcA | "G"BAGB AGEG |[1 "D"DEGB "G"AGef :|
[2 "D"DEGB "G"AG G2 |:"G"DEDE GABc | dA(^AB) G3D | "C"EGAB c4 | cdec dcGE |
"G"DEDE GABc | dAB_B AGEG | DEGB AGED | "D"EG2 "G"GG2:|
% abcbook-tune_id 6298c297a9646bad2396569c


% abcbook-boost 0
% abcbook-tablature 
% abcbook-transpose 
% abcbook-lastupdated 1654178455873
% abcbook-soundfonts 
% abcbook-repeats 1


